X:506
T:The poor old woman 2
R:Hornpipe
O:Ireland
P:APB The Chieftains
D:Padhraic MacMathuna: Blas na Meala (?)
D:Chieftains 8
S:Chieftains 8
Z:Transcription, chords:Mike Long
M:4/4
L:1/8
K:G
Bc|\
"G"dggf gedc|B2G2 G2AB|"Am"ceab afdB|"D"c2A2 A2Bc|\
"G"dggf "C"g2BA|"G"GDBD GBdG|
"Am"ceaf "D"gedc|"G"B2G2 G2:|\
|:dc|\
"G"BdgG (3(Bcd) gG|BdcA GBdG|"Am"ceae ceae|"C"cABG "D"A2D2|
"G"Bdgd (3(Bcd) gG|(3(Bcd) cA GBdG|"Am"ceaf "D"gedc|"G"B2G2 G2:|\
|:ga|\
"G"(3(bag) af gedc|"G"B2G2 Ggab|
"Am"(3(c'ba) bg afdB|"D"c2A2 A2ga|\
"G"(3(bag) af "C"g2BA|"G"GDBD GBdG|"Am"ceaf "D"gedc|[1 "G"B2G2 Gf:|[2 "G"B2G2 G2|]
